X:14
T:La Rosa De Los Vientos
R:waltz
M:3/4
L:1/8
K:Amin
V:1
z2 A2 B2|c3B A2|G2 E2 D2|E6|
z2 A2 B2|c3B A2|G2 E2 D2|E6|
z2 e2 d2|c3d e2|d2 c2 B2|c6|
z2 e2 de|c3d e2|d2 c2 B2|A6:||
z2 A2 B2|c4 E2|B4 E2|A6|
z2 A2 B2|c4 E2|B4 c2|AG F4|
z2 A2 B2|c4 e2|d4 e2|e6|
z2 e2 d2|c3B A2|E2 G2 B2|A6:||
V:2
